svg/robot_happy.svg

<svg xmlns="http://www.w3.org/2000/svg" viewBox="0 0 24 24"><path d="M22 14h-1c0-3.87-3.13-7-7-7h-1V5.73A2 2 0 1 0 10 4c0 .74.4 1.39 1 1.73V7h-1c-3.87 0-7 3.13-7 7H2c-.55 0-1 .45-1 1v3c0 .55.45 1 1 1h1v1a2 2 0 0 0 2 2h14c1.11 0 2-.89 2-2v-1h1c.55 0 1-.45 1-1v-3c0-.55-.45-1-1-1M9.79 16.5C9.4 15.62 8.53 15 7.5 15s-1.9.62-2.29 1.5c-.13-.31-.21-.64-.21-1a2.5 2.5 0 0 1 5 0c0 .36-.08.69-.21 1m9 0c-.39-.88-1.29-1.5-2.29-1.5s-1.9.62-2.29 1.5c-.13-.31-.21-.64-.21-1a2.5 2.5 0 0 1 5 0c0 .36-.08.69-.21 1"/></svg>

<?xml version="1.0" encoding="UTF-8"?><!DOCTYPE svg PUBLIC "-//W3C//DTD SVG 1.1//EN" "http://www.w3.org/Graphics/SVG/1.1/DTD/svg11.dtd"><svg xmlns="http://www.w3.org/2000/svg" xmlns:xlink="http://www.w3.org/1999/xlink" version="1.1" id="mdi-robot-happy" width="24" height="24" viewBox="0 0 24 24"><path d="M22 14H21C21 10.13 17.87 7 14 7H13V5.73C13.6 5.39 14 4.74 14 4C14 2.9 13.11 2 12 2S10 2.9 10 4C10 4.74 10.4 5.39 11 5.73V7H10C6.13 7 3 10.13 3 14H2C1.45 14 1 14.45 1 15V18C1 18.55 1.45 19 2 19H3V20C3 21.11 3.9 22 5 22H19C20.11 22 21 21.11 21 20V19H22C22.55 19 23 18.55 23 18V15C23 14.45 22.55 14 22 14M9.79 16.5C9.4 15.62 8.53 15 7.5 15S5.6 15.62 5.21 16.5C5.08 16.19 5 15.86 5 15.5C5 14.12 6.12 13 7.5 13S10 14.12 10 15.5C10 15.86 9.92 16.19 9.79 16.5M18.79 16.5C18.4 15.62 17.5 15 16.5 15S14.6 15.62 14.21 16.5C14.08 16.19 14 15.86 14 15.5C14 14.12 15.12 13 16.5 13S19 14.12 19 15.5C19 15.86 18.92 16.19 18.79 16.5Z" /></svg>
